src/assets/duotone/Monitor.svg

<svg width="24" height="24" viewBox="0 0 24 24"  xmlns="http://www.w3.org/2000/svg">
<path opacity="0.4" d="M21.97 6.41V12.91H2V6.41C2 3.98 3.98 2 6.41 2H17.56C19.99 2 21.97 3.98 21.97 6.41Z" />
<path d="M2 12.9199V13.1199C2 15.5599 3.98 17.5299 6.41 17.5299H10.25C10.8 17.5299 11.25 17.9799 11.25 18.5299V19.4999C11.25 20.0499 10.8 20.4999 10.25 20.4999H7.83C7.42 20.4999 7.08 20.8399 7.08 21.2499C7.08 21.6599 7.41 21.9999 7.83 21.9999H16.18C16.59 21.9999 16.93 21.6599 16.93 21.2499C16.93 20.8399 16.59 20.4999 16.18 20.4999H13.76C13.21 20.4999 12.76 20.0499 12.76 19.4999V18.5299C12.76 17.9799 13.21 17.5299 13.76 17.5299H17.57C20.01 17.5299 21.98 15.5499 21.98 13.1199V12.9199H2Z" />
</svg>

<?xml version="1.0" encoding="UTF-8"?>
<svg width="24" height="24" viewBox="0 0 24 24" xmlns="http://www.w3.org/2000/svg">
 <path d="M21.97 6.41V12.91H2V6.41C2 3.98 3.98 2 6.41 2H17.56C19.99 2 21.97 3.98 21.97 6.41Z" opacity=".4"/>
 <path d="m2 12.92v0.2c0 2.44 1.98 4.41 4.41 4.41h3.84c0.55 0 1 0.45 1 1v0.97c0 0.55-0.45 1-1 1h-2.42c-0.41 0-0.75 0.34-0.75 0.75s0.33 0.75 0.75 0.75h8.35c0.41 0 0.75-0.34 0.75-0.75s-0.34-0.75-0.75-0.75h-2.42c-0.55 0-1-0.45-1-1v-0.97c0-0.55 0.45-1 1-1h3.81c2.44 0 4.41-1.98 4.41-4.41v-0.2h-19.98z"/>
</svg>
